img/Telefono.svg

<?xml version="1.0" encoding="UTF-8" standalone="no"?>
<svg
   width="80"
   height="80"
   viewBox="0 0 80 80"
   fill="none"
   version="1.1"
   id="svg4"
   sodipodi:docname="Telefono.svg"
   inkscape:version="1.4.2 (f4327f4, 2025-05-13)"
   xmlns:inkscape="http://www.inkscape.org/namespaces/inkscape"
   xmlns:sodipodi="http://sodipodi.sourceforge.net/DTD/sodipodi-0.dtd"
   xmlns="http://www.w3.org/2000/svg"
   xmlns:svg="http://www.w3.org/2000/svg">
  <sodipodi:namedview
     id="namedview4"
     pagecolor="#ffffff"
     bordercolor="#000000"
     borderopacity="0.25"
     inkscape:showpageshadow="2"
     inkscape:pageopacity="0.0"
     inkscape:pagecheckerboard="0"
     inkscape:deskcolor="#d1d1d1"
     showgrid="false"
     inkscape:zoom="7.9495944"
     inkscape:cx="34.59296"
     inkscape:cy="37.045915"
     inkscape:window-width="1920"
     inkscape:window-height="991"
     inkscape:window-x="-9"
     inkscape:window-y="-9"
     inkscape:window-maximized="1"
     inkscape:current-layer="svg4" />
  <rect
     width="80"
     height="80"
     rx="40"
     fill="#786960"
     id="rect1"
     x="0"
     y="0"
     style="stroke-width:1.21211" />
  <rect
     x="4.848485"
     y="4.848485"
     width="70.303032"
     height="69.090912"
     rx="34.545456"
     fill="#8a8787"
     id="rect2"
     style="stroke-width:1.21211" />
  <g
     clip-path="url(#clip0_1_70)"
     id="g4"
     transform="scale(1.2121213)">
    <path
       d="m 45.5634,37.8759 c -0.9212,-0.9592 -2.0324,-1.4721 -3.2101,-1.4721 -1.1682,0 -2.2889,0.5034 -3.2482,1.4626 l -3.0012,2.9917 c -0.247,-0.1329 -0.4939,-0.2564 -0.7313,-0.3799 -0.342,-0.1709 -0.6649,-0.3324 -0.9403,-0.5033 -2.8113,-1.7856 -5.3661,-4.1125 -7.8165,-7.1232 -1.1872,-1.5006 -1.985,-2.7638 -2.5643,-4.046 0.7788,-0.7123 1.5006,-1.4531 2.2034,-2.1654 0.2659,-0.2659 0.5319,-0.5414 0.7978,-0.8073 1.9945,-1.9945 1.9945,-4.5778 0,-6.5723 l -2.5928,-2.5928 c -0.2945,-0.2945 -0.5984,-0.5984 -0.8833,-0.9023 -0.5699,-0.5889 -1.1682,-1.1967 -1.7855,-1.7666 -0.9213,-0.9117 -2.023,-1.3961 -3.1817,-1.3961 -1.1587,0 -2.2794,0.4844 -3.2292,1.3961 -0.0095,0.0095 -0.0095,0.0095 -0.019,0.019 l -3.2292,3.2577 c -1.2157,1.2157 -1.909,2.6973 -2.0609,4.4164 -0.22798,2.7733 0.5888,5.3566 1.2157,7.0472 1.5386,4.1504 3.837,7.9969 7.2656,12.1188 4.1599,4.9673 9.1651,8.8898 14.8827,11.6535 2.1844,1.0353 5.1001,2.2605 8.3578,2.4694 0.1995,0.0095 0.4084,0.019 0.5984,0.019 2.1939,0 4.0364,-0.7883 5.48,-2.3554 0.0095,-0.019 0.0285,-0.0285 0.038,-0.0475 0.4939,-0.5983 1.0638,-1.1397 1.6621,-1.719 0.4084,-0.3894 0.8263,-0.7978 1.2347,-1.2252 0.9402,-0.9783 1.4341,-2.118 1.4341,-3.2862 0,-1.1777 -0.5033,-2.3079 -1.4626,-3.2576 z m 3.4002,10.0009 c -0.0095,0 -0.0095,0.0095 0,0 -0.3704,0.3989 -0.7503,0.7598 -1.1587,1.1587 -0.6174,0.5889 -1.2442,1.2062 -1.8331,1.8996 -0.9592,1.0257 -2.0894,1.5101 -3.571,1.5101 -0.1425,0 -0.2945,0 -0.4369,-0.0095 C 39.1431,52.2552 36.5218,51.1535 34.5558,50.2132 29.1802,47.6109 24.4599,43.9164 20.5374,39.2341 17.2987,35.3306 15.1333,31.7215 13.6991,27.8465 12.8159,25.4816 12.4929,23.6391 12.6354,21.901 c 0.095,-1.1112 0.5224,-2.0325 1.3107,-2.8208 l 3.2386,-3.2386 c 0.4654,-0.4369 0.9593,-0.6744 1.4437,-0.6744 0.5983,0 1.0827,0.361 1.3866,0.6649 0.0095,0.0095 0.019,0.019 0.0285,0.0285 0.5794,0.5413 1.1302,1.1017 1.7096,1.7 0.2944,0.304 0.5983,0.6079 0.9022,0.9213 l 2.5929,2.5928 c 1.0067,1.0068 1.0067,1.9375 0,2.9443 -0.2755,0.2754 -0.5414,0.5508 -0.8168,0.8168 -0.7978,0.8168 -1.5576,1.5766 -2.3839,2.3174 -0.019,0.019 -0.038,0.0285 -0.0475,0.0475 -0.8168,0.8167 -0.6648,1.6145 -0.4939,2.1559 0.0095,0.0285 0.019,0.057 0.0285,0.0855 0.6743,1.6336 1.6241,3.1722 3.0677,5.0052 l 0.0095,0.0095 c 2.6214,3.2292 5.3851,5.746 8.4339,7.674 0.3894,0.247 0.7883,0.4464 1.1682,0.6364 0.3419,0.1709 0.6648,0.3324 0.9402,0.5033 0.038,0.019 0.076,0.0475 0.114,0.0665 0.3229,0.1615 0.6268,0.2374 0.9402,0.2374 0.7883,0 1.2822,-0.4938 1.4437,-0.6553 l 3.2481,-3.2482 c 0.323,-0.3229 0.8358,-0.7123 1.4342,-0.7123 0.5888,0 1.0732,0.3704 1.3676,0.6934 0.0095,0.0094 0.0095,0.0095 0.019,0.0189 l 5.2332,5.2332 c 0.9782,0.9688 0.9782,1.966 0.0095,2.9727 z"
       fill="#ffffff"
       id="path2" />
    <path
       d="m 34.3191,20.7043 c 2.4883,0.4179 4.7487,1.5956 6.5533,3.4001 1.8045,1.8046 2.9727,4.065 3.4001,6.5534 0.1045,0.6268 0.6458,1.0637 1.2632,1.0637 0.076,0 0.1425,-0.0095 0.2184,-0.019 0.7029,-0.114 1.1682,-0.7788 1.0543,-1.4816 -0.5129,-3.0108 -1.9375,-5.7556 -4.1125,-7.9305 -2.1749,-2.1749 -4.9197,-3.5996 -7.9305,-4.1124 -0.7028,-0.114 -1.3581,0.3514 -1.4816,1.0447 -0.1234,0.6933 0.3324,1.3676 1.0353,1.4816 z"
       fill="#ffffff"
       id="path3" />
    <path
       d="m 54.9477,29.8505 c -0.8452,-4.9577 -3.1816,-9.4691 -6.7717,-13.0592 -3.5901,-3.59 -8.1014,-5.9264 -13.0592,-6.7717 -0.6933,-0.12349 -1.3486,0.3514 -1.4721,1.0447 -0.114,0.7028 0.3514,1.3582 1.0542,1.4816 4.4259,0.7503 8.4624,2.8493 11.6725,6.05 3.2102,3.2101 5.2997,7.2466 6.05,11.6725 0.1045,0.6268 0.6458,1.0637 1.2632,1.0637 0.0759,0 0.1424,-0.0095 0.2184,-0.019 0.6933,-0.1045 1.1682,-0.7693 1.0447,-1.4626 z"
       fill="#ffffff"
       id="path4" />
  </g>
  <defs
     id="defs4">
    <clipPath
       id="clip0_1_70">
      <rect
         width="45"
         height="45"
         fill="#ffffff"
         transform="translate(10,10)"
         id="rect4"
         x="0"
         y="0" />
    </clipPath>
  </defs>
</svg>

<svg width="66" height="66" viewBox="0 0 66 66" fill="none" xmlns="http://www.w3.org/2000/svg">
<rect width="66" height="66" rx="33" fill="#786960"/>
<rect x="4" y="4" width="58" height="57" rx="28.5" fill="#8A8787"/>
<g clip-path="url(#clip0_1_70)">
<path d="M45.5634 37.8759C44.6422 36.9167 43.531 36.4038 42.3533 36.4038C41.1851 36.4038 40.0644 36.9072 39.1051 37.8664L36.1039 40.8581C35.8569 40.7252 35.61 40.6017 35.3726 40.4782C35.0306 40.3073 34.7077 40.1458 34.4323 39.9749C31.621 38.1893 29.0662 35.8624 26.6158 32.8517C25.4286 31.3511 24.6308 30.0879 24.0515 28.8057C24.8303 28.0934 25.5521 27.3526 26.2549 26.6403C26.5208 26.3744 26.7868 26.0989 27.0527 25.833C29.0472 23.8385 29.0472 21.2552 27.0527 19.2607L24.4599 16.6679C24.1654 16.3734 23.8615 16.0695 23.5766 15.7656C23.0067 15.1767 22.4084 14.5689 21.7911 13.999C20.8698 13.0873 19.7681 12.6029 18.6094 12.6029C17.4507 12.6029 16.33 13.0873 15.3802 13.999C15.3707 14.0085 15.3707 14.0085 15.3612 14.018L12.132 17.2757C10.9163 18.4914 10.223 19.973 10.0711 21.6921C9.84312 24.4654 10.6599 27.0487 11.2868 28.7393C12.8254 32.8897 15.1238 36.7362 18.5524 40.8581C22.7123 45.8254 27.7175 49.7479 33.4351 52.5116C35.6195 53.5469 38.5352 54.7721 41.7929 54.981C41.9924 54.9905 42.2013 55 42.3913 55C44.5852 55 46.4277 54.2117 47.8713 52.6446C47.8808 52.6256 47.8998 52.6161 47.9093 52.5971C48.4032 51.9988 48.9731 51.4574 49.5714 50.8781C49.9798 50.4887 50.3977 50.0803 50.8061 49.6529C51.7463 48.6746 52.2402 47.5349 52.2402 46.3667C52.2402 45.189 51.7369 44.0588 50.7776 43.1091L45.5634 37.8759ZM48.9636 47.8768C48.9541 47.8768 48.9541 47.8863 48.9636 47.8768C48.5932 48.2757 48.2133 48.6366 47.8049 49.0355C47.1875 49.6244 46.5607 50.2417 45.9718 50.9351C45.0126 51.9608 43.8824 52.4452 42.4008 52.4452C42.2583 52.4452 42.1063 52.4452 41.9639 52.4357C39.1431 52.2552 36.5218 51.1535 34.5558 50.2132C29.1802 47.6109 24.4599 43.9164 20.5374 39.2341C17.2987 35.3306 15.1333 31.7215 13.6991 27.8465C12.8159 25.4816 12.4929 23.6391 12.6354 21.901C12.7304 20.7898 13.1578 19.8685 13.9461 19.0802L17.1847 15.8416C17.6501 15.4047 18.144 15.1672 18.6284 15.1672C19.2267 15.1672 19.7111 15.5282 20.015 15.8321C20.0245 15.8416 20.034 15.8511 20.0435 15.8606C20.6229 16.4019 21.1737 16.9623 21.7531 17.5606C22.0475 17.8646 22.3514 18.1685 22.6553 18.4819L25.2482 21.0747C26.2549 22.0815 26.2549 23.0122 25.2482 24.019C24.9727 24.2944 24.7068 24.5698 24.4314 24.8358C23.6336 25.6526 22.8738 26.4124 22.0475 27.1532C22.0285 27.1722 22.0095 27.1817 22 27.2007C21.1832 28.0174 21.3352 28.8152 21.5061 29.3566C21.5156 29.3851 21.5251 29.4136 21.5346 29.4421C22.2089 31.0757 23.1587 32.6143 24.6023 34.4473L24.6118 34.4568C27.2332 37.686 29.9969 40.2028 33.0457 42.1308C33.4351 42.3778 33.834 42.5772 34.2139 42.7672C34.5558 42.9381 34.8787 43.0996 35.1541 43.2705C35.1921 43.2895 35.2301 43.318 35.2681 43.337C35.591 43.4985 35.8949 43.5744 36.2083 43.5744C36.9966 43.5744 37.4905 43.0806 37.652 42.9191L40.9001 39.6709C41.2231 39.348 41.7359 38.9586 42.3343 38.9586C42.9231 38.9586 43.4075 39.329 43.7019 39.652C43.7114 39.6614 43.7114 39.6615 43.7209 39.6709L48.9541 44.9041C49.9323 45.8729 49.9323 46.8701 48.9636 47.8768Z" fill="white"/>
<path d="M34.3191 20.7043C36.8074 21.1222 39.0678 22.2999 40.8724 24.1044C42.6769 25.909 43.8451 28.1694 44.2725 30.6578C44.377 31.2846 44.9183 31.7215 45.5357 31.7215C45.6117 31.7215 45.6782 31.712 45.7541 31.7025C46.457 31.5885 46.9223 30.9237 46.8084 30.2209C46.2955 27.2101 44.8709 24.4653 42.6959 22.2904C40.521 20.1155 37.7762 18.6908 34.7654 18.178C34.0626 18.064 33.4073 18.5294 33.2838 19.2227C33.1604 19.916 33.6162 20.5903 34.3191 20.7043Z" fill="white"/>
<path d="M54.9477 29.8505C54.1025 24.8928 51.7661 20.3814 48.176 16.7913C44.5859 13.2013 40.0746 10.8649 35.1168 10.0196C34.4235 9.89611 33.7682 10.371 33.6447 11.0643C33.5307 11.7671 33.9961 12.4225 34.6989 12.5459C39.1248 13.2962 43.1613 15.3952 46.3714 18.5959C49.5816 21.806 51.6711 25.8425 52.4214 30.2684C52.5259 30.8952 53.0672 31.3321 53.6846 31.3321C53.7605 31.3321 53.827 31.3226 53.903 31.3131C54.5963 31.2086 55.0712 30.5438 54.9477 29.8505Z" fill="white"/>
</g>
<defs>
<clipPath id="clip0_1_70">
<rect width="45" height="45" fill="white" transform="translate(10 10)"/>
</clipPath>
</defs>
</svg>
